**kern
*staff1
!!pagebreak:original
*I"P1
*clefG2
*k[f#c#]
*M2/4
8a/
=1
8ff#\L
8ff#\
8ff#\
8ff#\J
=2
8ee\L
8ee\
8ee\
8ee\J
=3
8ee\L
8ee\
8gg#\
8gg#\J
=4
4aa\
8r
8a/
=5
8ggn\L
8gg\
8gg\
8gg\J
=6
8ff#\L
8ff#\
8ff#\
8ff#\J
=7
8ee\L
8ee\
8aa\
8aa\J
=8
4dd\
=
*-
